nova/resources/svg/fluent/flag.svg

<svg width="24" height="24" viewBox="0 0 24 24" fill="none" xmlns="http://www.w3.org/2000/svg">
<path d="M3 3.74755C3 3.33334 3.33579 2.99755 3.75 2.99755H20.2541C20.8722 2.99755 21.225 3.7032 20.8541 4.19762L16.6898 9.74878L20.8541 15.2999C21.225 15.7944 20.8722 16.5 20.2541 16.5L4.5 16.4996V21.2494C4.5 21.6291 4.21785 21.9429 3.85177 21.9925L3.75 21.9994C3.3703 21.9994 3.05651 21.7172 3.00685 21.3512L3 21.2494V3.74755ZM18.7539 4.49755H4.5V15H18.7539L15.1522 10.1988C14.9522 9.93215 14.9522 9.56541 15.1522 9.29871L18.7539 4.49755Z" fill="currentColor"/>
</svg>

<svg viewBox="0 0 24 24" fill="none" xmlns="http://www.w3.org/2000/svg"><path d="M3 3.748a.75.75 0 01.75-.75h16.504a.75.75 0 01.6 1.2l-4.164 5.55 4.164 5.552a.75.75 0 01-.6 1.2H4.5v4.75a.75.75 0 01-.648.742L3.75 22a.75.75 0 01-.743-.648L3 21.25V3.748zm15.754.75H4.5V15h14.254l-3.602-4.801a.75.75 0 010-.9l3.602-4.801z" fill="currentColor"/></svg>
